svgs/sharp-solid/thumbs-down.svg

<svg xmlns="http://www.w3.org/2000/svg" viewBox="0 0 512 512"><!--! Font Awesome Pro 6.6.0 by @fontawesome - https://fontawesome.com License - https://fontawesome.com/license (Commercial License) Copyright 2024 Fonticons, Inc. --><path d="M240 444.3l0 35.7 96 0 0-35.7c0-38.1-9-75.1-25.8-108.3L464 336l48 0 0-96-16 0 0-80-24 0 0-72-24 0 0-56-48 0L280 32l-14.5 0-12.1 8.1-72 48L160 102.3l0 25.7 0 64 0 96 0 23.1 18 14.4 7.9 6.4c34.2 27.3 54 68.7 54 112.4zM128 384l0-288L0 96 0 384l128 0z"/></svg>

<svg xmlns="http://www.w3.org/2000/svg" viewBox="0 0 512 512"><!--! Font Awesome Pro 6.4.2 by @fontawesome - https://fontawesome.com License - https://fontawesome.com/license (Commercial License) Copyright 2023 Fonticons, Inc. --><path d="M240 444.3V480h96V444.3c0-38.1-9-75.1-25.8-108.3H464h48V240H496V160H472V88H448V32H400 280 265.5l-12.1 8.1-72 48L160 102.3V128v64 96 23.1l18 14.4 7.9 6.4c34.2 27.3 54 68.7 54 112.4zM128 384V96H0V384H128z"/></svg>
